X:206
T:Fisherman's Lilt
T:Molly, What Ails You?
R:reel
H:Also in C, #154. The second name is from O'Neill's
H:Also played as "The Kerryman's Fling", fling#4.
D:Bothy Band: Out of the Wind, Into the Sun
Z:id:hn-reel-206
M:C|
K:D
~A3F ABde|fedc dB~B2|AF~F2 ABde|1 fedc d2dB:|2 fedc d2de||
|:fa~a2 bafb|afef dB~B2|fa~a2 fb~b2|abc'a b2ba|
fa~a2 bafb|afef dB~B2|AF~F2 ABde|1 fedc d2de:|2 fedc d2dB||

